icons/book-locked-16.svg

<svg width="16" height="16" viewBox="0 0 16 16" fill="none" xmlns="http://www.w3.org/2000/svg">
<path fill-rule="evenodd" clip-rule="evenodd" d="M12 6C13.6569 6 15 7.34315 15 9V10.168C15.5912 10.4488 16 11.0519 16 11.75V14.25C16 15.2165 15.2165 16 14.25 16H9.75C8.7835 16 8 15.2165 8 14.25V11.75C8 11.0519 8.40876 10.4488 9 10.168V9C9 7.34315 10.3431 6 12 6ZM12 7.5C11.1716 7.5 10.5 8.17157 10.5 9V10H13.5V9C13.5 8.17157 12.8284 7.5 12 7.5Z" fill="#010409"/>
<path d="M5.00293 1C6.23013 1.00002 7.31978 1.58955 8.00391 2.50098C8.68799 1.58959 9.77761 1.00004 11.0049 1H15.25C15.6642 1 16 1.33579 16 1.75V5.5C16 5.91421 15.6642 6.25 15.25 6.25C14.8358 6.25 14.5 5.91421 14.5 5.5V2.5H11.0049C9.79473 2.50006 8.80119 3.45563 8.75 4.65332V6.5C8.75 6.91421 8.41421 7.25 8 7.25C7.58579 7.25 7.25 6.91421 7.25 6.5V4.69043C7.21827 3.47531 6.22542 2.50004 5.00293 2.5H1.5V11.5H5.25781C5.86964 11.5001 6.46593 11.6498 6.99805 11.9287L7.00293 11.9297C7.3685 12.1243 7.50698 12.5787 7.3125 12.9443C7.11787 13.31 6.66349 13.4485 6.29785 13.2539L6.29688 13.2529V13.2549C5.97891 13.0893 5.62282 13.0001 5.25781 13H0.75C0.335786 13 0 12.6642 0 12.25V1.75C0 1.33579 0.335786 1 0.75 1H5.00293Z" fill="#010409"/>
</svg>

<svg xmlns="http://www.w3.org/2000/svg" width="16" height="16" viewBox="0 0 16 16"><path d="M12 6a3 3 0 0 1 3 3v1.168c.591.281 1 .884 1 1.582v2.5A1.75 1.75 0 0 1 14.25 16h-4.5A1.75 1.75 0 0 1 8 14.25v-2.5c0-.698.409-1.301 1-1.582V9a3 3 0 0 1 3-3Zm0 1.5A1.5 1.5 0 0 0 10.5 9v1h3V9A1.5 1.5 0 0 0 12 7.5Z"/><path d="M5.003 1c1.227 0 2.317.59 3.001 1.501A3.746 3.746 0 0 1 11.005 1h4.245a.75.75 0 0 1 .75.75V5.5a.75.75 0 0 1-1.5 0v-3h-3.495c-1.21 0-2.204.956-2.255 2.153V6.5a.75.75 0 0 1-1.5 0V4.69A2.249 2.249 0 0 0 5.003 2.5H1.5v9h3.758c.612 0 1.208.15 1.74.429l.005.001a.75.75 0 0 1-.705 1.324l-.001-.001v.002A2.245 2.245 0 0 0 5.258 13H.75a.75.75 0 0 1-.75-.75V1.75A.75.75 0 0 1 .75 1h4.253Z"/></svg>
